Yaru++/actions/16/align-horizontal-left-to-anchor.svg

<svg viewBox="0 0 24 24" xmlns="http://www.w3.org/2000/svg"><path d="m4 4v6h3 1v-5-1h-3zm6 0v16h1v-16zm4 0v1 5h6v-1-4-1h-1-4zm1 1h4v4h-4zm-2 9v6h6 1v-5-1h-6zm1 1h5v4h-5z" fill="#808080"/></svg>

<svg xmlns="http://www.w3.org/2000/svg" viewBox="0 0 24 24">
 <defs>
  <style id="current-color-scheme" type="text/css">
   .ColorScheme-Text { color:#808080; }
  </style>
 </defs>
 <path fill="#808080" class="ColorScheme-Text" d="M 4 4 L 4 10 L 7 10 L 8 10 L 8 5 L 8 4 L 5 4 L 4 4 z M 10 4 L 10 20 L 11 20 L 11 4 L 10 4 z M 14 4 L 14 5 L 14 10 L 20 10 L 20 9 L 20 5 L 20 4 L 19 4 L 15 4 L 14 4 z M 15 5 L 19 5 L 19 9 L 15 9 L 15 5 z M 13 14 L 13 20 L 19 20 L 20 20 L 20 15 L 20 14 L 14 14 L 13 14 z M 14 15 L 19 15 L 19 19 L 14 19 L 14 15 z"/>
</svg>
